X: 10673
T: GALLOPADE No. 1.
C:
%R: reel
B: Elias Howe "The Musician's Companion" Part 1 1842 p.67 #3
S: http://imslp.org/wiki/The_Musician's_Companion_(Howe,_Elias)
Z: 2015 John Chambers <jc:trillian.mit.edu>
N: Added missing bar line between bars 11,12.
M: 2/4
L: 1/16
K: D
% - - - - - - - - - - - - - - - - - - - - - - - - -
|:\
f2AA A2f2 | g2A2f2A2 | e2BB B2e2 | c2AA A2a2 |\
f2AA A2f2 | g2A2f2A2 | e2AA A2Bc | d2(fe) d4 ::\
d4 d4 | f4 gfed | c2A2c2e2 | a2e2c2A2 |\
d4 d4 | f4 gfed | c2e2a2c2 | d4 z4 :|
|:\
G2DD D2G2 | B4 z4 | B2GG G2B2 | d4 z4 |\
G2DD D2G2 | B2GG G2B2 | d2DD D2EF | G4 z4 ::\
d4 d4 | f4 gfed | c2A2c2e2 | a2e2c2A2 |\
d4 d4 | f4 gfed | c2e2a2c2 | d4 z4 :|
% - - - - - - - - - - - - - - - - - - - - - - - - -
